Numix-GalliumOS/16/categories/applications-education.svg

<?xml version="1.0" encoding="UTF-8" standalone="no"?>
<svg
   xmlns:dc="http://purl.org/dc/elements/1.1/"
   xmlns:cc="http://creativecommons.org/ns#"
   xmlns:rdf="http://www.w3.org/1999/02/22-rdf-syntax-ns#"
   xmlns:svg="http://www.w3.org/2000/svg"
   xmlns="http://www.w3.org/2000/svg"
   xmlns:sodipodi="http://sodipodi.sourceforge.net/DTD/sodipodi-0.dtd"
   xmlns:inkscape="http://www.inkscape.org/namespaces/inkscape"
   viewBox="0 0 16 16"
   id="svg2"
   version="1.1"
   inkscape:version="0.91 r"
   sodipodi:docname="applications-education.svg"
   width="16"
   height="16">
  <metadata
     id="metadata20">
    <rdf:RDF>
      <cc:Work
         rdf:about="">
        <dc:format>image/svg+xml</dc:format>
        <dc:type
           rdf:resource="http://purl.org/dc/dcmitype/StillImage" />
        <dc:title />
      </cc:Work>
    </rdf:RDF>
  </metadata>
  <defs
     id="defs18" />
  <sodipodi:namedview
     pagecolor="#ffffff"
     bordercolor="#666666"
     borderopacity="1"
     objecttolerance="10"
     gridtolerance="10"
     guidetolerance="10"
     inkscape:pageopacity="0"
     inkscape:pageshadow="2"
     inkscape:window-width="1920"
     inkscape:window-height="1056"
     id="namedview16"
     showgrid="true"
     inkscape:zoom="22.627417"
     inkscape:cx="16.139872"
     inkscape:cy="12.264203"
     inkscape:window-x="0"
     inkscape:window-y="24"
     inkscape:window-maximized="1"
     inkscape:current-layer="svg2">
    <inkscape:grid
       type="xygrid"
       id="grid4148" />
  </sodipodi:namedview>
  <path
     style="opacity:1;fill:#89939b;fill-opacity:1;fill-rule:nonzero;stroke:none;stroke-width:1;stroke-linecap:round;stroke-linejoin:round;stroke-miterlimit:4;stroke-dasharray:none;stroke-dashoffset:0;stroke-opacity:1"
     d="M 1.3333323,5.6666669 7.9999976,2.9999999 14.666668,5.6666669 7.9999976,8.3333337 Z"
     id="rect4138"
     inkscape:connector-curvature="0"
     sodipodi:nodetypes="ccccc" />
  <ellipse
     style="opacity:1;fill:#89939b;fill-opacity:1;fill-rule:nonzero;stroke:none;stroke-width:4;stroke-linecap:round;stroke-linejoin:miter;stroke-miterlimit:4;stroke-dasharray:none;stroke-dashoffset:0;stroke-opacity:1"
     id="path4166"
     cx="8"
     cy="11.5"
     rx="3"
     ry="1.4999998" />
  <path
     style="opacity:1;fill:#89939b;fill-opacity:1;fill-rule:nonzero;stroke:none;stroke-width:4;stroke-linecap:round;stroke-linejoin:miter;stroke-miterlimit:4;stroke-dasharray:none;stroke-dashoffset:0;stroke-opacity:1"
     d="M 5 8.2109375 L 5 11.5 L 11 11.5 L 11 8.2109375 L 8 9.4101562 L 5 8.2109375 z "
     id="rect4188" />
  <rect
     style="opacity:1;fill:#89939b;fill-opacity:1;fill-rule:nonzero;stroke:none;stroke-width:4;stroke-linecap:round;stroke-linejoin:miter;stroke-miterlimit:4;stroke-dasharray:none;stroke-dashoffset:0;stroke-opacity:1"
     id="rect4200"
     width="1"
     height="2.8977473"
     x="12.999999"
     y="5.6022525" />
  <circle
     style="opacity:1;fill:#89939b;fill-opacity:1;fill-rule:nonzero;stroke:none;stroke-width:4;stroke-linecap:round;stroke-linejoin:miter;stroke-miterlimit:4;stroke-dasharray:none;stroke-dashoffset:0;stroke-opacity:1"
     id="path4202"
     cx="13.499997"
     cy="8.625001"
     r="0.875" />
  <path
     style="fill:#89939b;fill-opacity:1;fill-rule:evenodd;stroke:none;stroke-width:1px;stroke-linecap:butt;stroke-linejoin:miter;stroke-opacity:1"
     d="M 13.166666,8.7000004 12.5,11 l 2,0 -0.666662,-2.2999996 z"
     id="path4204"
     inkscape:connector-curvature="0"
     sodipodi:nodetypes="ccccc" />
</svg>

<svg xmlns="http://www.w3.org/2000/svg" viewBox="0 0 16 16">
 <path d="m 1.333 5.667 6.667 -2.667 6.667 2.667 -6.667 2.667" style="fill:#89939b;opacity:1;fill-opacity:1;stroke:none;fill-rule:nonzero"/>
 <ellipse cx="8" cy="11.5" rx="3" ry="1.5" style="fill:#89939b;opacity:1;fill-opacity:1;stroke:none;fill-rule:nonzero"/>
 <path d="m 5 8.211 l 0 3.289 l 6 0 l 0 -3.289 l -3 1.199 l -3 -1.199 z" style="fill:#89939b;opacity:1;fill-opacity:1;stroke:none;fill-rule:nonzero"/>
 <rect width="1" height="2.898" x="13" y="5.602" style="fill:#89939b;opacity:1;fill-opacity:1;stroke:none;fill-rule:nonzero"/>
 <circle cx="13.5" cy="8.625" r="0.875" style="fill:#89939b;opacity:1;fill-opacity:1;stroke:none;fill-rule:nonzero"/>
 <path d="m 13.167 8.7 -0.667 2.3 l 2 0 -0.667 -2.3 z" style="fill:#89939b;fill-opacity:1;stroke:none;fill-rule:evenodd"/>
</svg>
